X: 1
T:The New Davey
M:C
L:1/8
Q:80
C:Bruce Gandy
S:Strathspey
K:HP
[| {gcd}c/2{e}A3/2{gAGAG}A3/2B/2{gcd}c/2e3/2{ag}a2|
{f}g3/2e/2{Gdc}d/2g3/2{aBd}B/2g3/2{Gdc}d3/2B/2|
{gcd}c/2{e}A3/2{gAGAG}A3/2B/2{gcd}c/2e3/2{ag}a2|  !
{f}((3g3/2e/2{g}fed){g}B/2e3/2{A}e3/2d/2|
{gcd}c/2{e}A3/2{gAGAG}A3/2B/2{gcd}c/2e3/2{ag}a2|
{f}g3/2e/2{Gdc}d/2g3/2{aBd}B/2{e}G3/2{g}((3dcB)|  !
{gAGAG}A2{g}A3/2B/2{gcd}c/2e3/2{ag}a2|
{f}((3g3/2e/2{g}fed){gef}e2{A}e3/2f/2:| [|
{gf}g3/2B/2{gBGdG}B2{gf}((3g3/2e/2{g}fed)|  !
{gcd}c/2{e}A3/2{gAGAG}A3/2B/2{g}c/2e3/2{A}e3/2f/2|
{gf}g3/2B/2{gBGdG}B2{gf}((3g3/2a/2fed)|
{g}e3/2f/2{gef}e3/2d/2{g}B/2e3/2{A}e3/2f/2|  !
{gf}g3/2B/2{gBGdG}B2{gf}((3g3/2e/2{g}fed)|
{gcd}c/2{e}A3/2{gAGAG}A3/2B/2{g}c/2e3/2{A}e3/2f/2|
{gf}g3/2a/2{f}g3/2d/2{gBd}B/2{e}G3/2{g}((3Bcd)|  !
{g}((3e3/2f/2{g}fed){g}B/2e3/2{A}e2:|
